**kern
*staff1
*head1[head1a]
*head1[head1b]
*head1[head1aa]
*solo1[solo1a]
*solo1[solo1b]
*solo1[solo1aa]
=1-
*clefG2
*k[]
*B-:
*M4/4
*>head1a
{12d/L
12d#/
12e/J
8f/L
8d#/J
8e-/L
8f/J
8r
[8d#/
=2
8d#/L]
8c/
8B-/
8G/J
4c/
8r
8B-/
=3
8A/L
8B-/
8d/
8f/J
8a/L
8a-/
8g/
8g-/J
=4
8f/L
8e/
8e-/
8G/J
4F#/
8d/L
8c/J
=5
8B-/L
8A/
8A-/
8B-/J
8b-/L
8a-/
8g/
8f/J
=6
8e-/L
8A/
8B-/
8c/J
8d-/L
8B-/
8G/
8A/J
=7
8c/L
8B-/
8A/
8B-/J
8d/L
[8f/J
4f/]}
=8
2r
2r
=9
4r
8r
{[8ff\
8ff\L]
[8dd\
8dd\]
8b-\J
=10||
2cc\
2r
=11
8r
8e/
12f\L
12b-\
12dd\J
8ff\L
8ee\
8ee-\
8bn\J
=12
8dd\L
8dd-\
8cc\
8b\J
8b-/L
8g-/
8e-/
8c/J
=13
8d/L
8f/
8a-/
8cc/J
8b-/L
8g-/J
4r
=14
2r
8b-\L
16cc\L
16b-\J
8g\
8f\J
=15
4e-/
8b-\L
16cc\L
16b-\JJ
8g-/L
8f/
8e-/
8c/J
=16
8d/L
8f/J}
4r
2r
=17
4r
8r
*>head1b
{8b\
12a-/L
12e/
12c/J
[4b\
=18||
4b\]
8a/L
8g/J
8f#/L
8a/
8cc/
8ee/J
=19
8dd\L
8cc\
8b\
16dd\L
16cc\JJ
8a/L
8f/
8d/
8A/J
=20
8B/L
8e/
8e-/
8B/J
8d/L
8F/J}
4r
=21
4r
8r
{16c/LL
16d/JJ
8e/L
8f/
8g/
8a/J
=22
8cc\L
8b\
8b-\
8a\J
8g/L
8f/J
12e/L
12g/
12b-/J
=23
12dd\L
12dd-\
12cc\J
8b/L
8g/J
8e-/L
8B/
8b-/
8a-/J
=24
8a/L
[8aa/J
2aa\]
8gg-\L
8ee\J
=25
8ff\L
8dd\J}
4r
2r
=26||
2r
2r
=27
8r
*>head1aa
{16dd/LL
16cc/J
8f/
8g/J
8b-\L
8ee-\
8dd\
8cc\J
=28
8b-/L
8g-/
8e-/
8c/J
8d/L
8B-/
8G/
8A/J
=29
8c/L
8B/
8B-/
8A/J
8A-/L
8c/
8b-/
8a-/J
=30
8g/L
8f/J
4e-/
8b-/L
8g-/
8e-/
8c/J
=31
8d/L
8B-/J}
4r
2r
=32
2r
2r
=33
4r
*>solo1a
{4ee\
4ff\
4cc#\
=34||
4dd\
8a/L
[8b-/J
8b-\L]
8dd\
8b-\
8f\J
=35
8g/L
8a/
8cc/
8a/J
8b/L
8a-/
8e/
8d-/J
=36
12b-\L
12cc\
12b-\J
8a/L
8g/J
8f/L
8e-/
8d/
8c/J
=37
8B-/L
8A-/
8G/
8B-/J
8b-/L
8a-/
8g/
8f/J
=38
8e-/L
8A/
8B-/
8c/J
8d-/L
8B-/
8G/
8A/J
=39
8c/L
[8B-/J
2B-/]}
4r
=40
2r
2r
=41
{12B-/L
12c/
12B-/J
8A/L
8B-/J
8c/L
8A/J
12B-/L
12c/
12d/J
=42||
8f/
4e-/
[8en/
8e/L]
[8g/
8g/]
8e/J
=43
4f/}
4r
2r
=44
8r
{16cc\LL
16b-\JJ
16bn/LL
16a-/
16e/
16d/JJ
16b-/LL
16an/
16g/
16f/JJ
16e-/LL
16d/
16c/
16B-/JJ
=45
16A/LL
16c/
16e-/
16g-/JJ
4f/
8r
4e-/
8c/
=46
8B-/L
8A-/
8G/
8B-/J
8b-/L
8g-/
8e-/
8c/J
=47
8d/L
8B-/
8G/
8A/J
8c/L
8B-/
8A/
8B-/J
=48
2d/}
2r
=49
1r
=50||
2r
*>solo1b
{8dd\L
8dd-\
8cc\
8b\J
=51
8a/L
8g/
8g-/
8a/J
8cc\L
8ee-\
8dd\
8cc\J
=52
8b/L
8d/
8f/
[8a-/J
4a-/]
8g/L
8f/J
=53
8e/L
8c/J
4B-/
8d/L
8B-/
8G/
8A/J
=54
8c/L
8A/J
12B-/L
12d/
12f/J
8a/L
8g/
8e/
8c/J
=55
4f/
2f/}
4r
=56
1r
=57
4r
*>solo1aa
{12f/L
12g/
12a/J
8b-\L
16cc\L
16cc#\J
8dd\
[8b-\J
=58||
8b-\L]
16cc\L
16b-\J
8g\
8b-\J
8cc#\L
[8dd\J
4dd\]
=59
4r
12f/L
12g/
12a/J
8b-\L
16cc\L
16cc#\J
8dd\
[8ccn\J
=60
4cc\]
8b-/L
8g/J
8a/L
8f/J
4r
=61
4r
8r
16cc\LL
16b\JJ
8b-/L
8a/
8a-/
8cc/J
=62
8b-/L
8g/
8e-/
8c/J
8b-/L
8g-/
8e-/
8c/J
=63
8d/L
8B-/
8G/
8A/J
8c/L
8B-/
8A/
8B-/J
=64
8e-/
4f/
[8d/
4d/_
8d/L]
16f/L
16d/JJ
=65
8c/L
[8B-/J
2B-/]}
4r
==
*-
